public/assets/images/icons/icon-coin2.svg

<svg width="36" height="30" viewBox="0 0 36 30" fill="none" xmlns="http://www.w3.org/2000/svg">
<path d="M21.2049 23.367C28.8971 20.1796 33.5335 13.7361 31.5607 8.97517C29.5879 4.21422 21.7529 2.93864 14.0607 6.12608C6.36854 9.31353 1.7321 15.757 3.70492 20.5179C5.67774 25.2789 13.5128 26.5544 21.2049 23.367Z" fill="#F7DE61"/>
<path d="M32.0109 11.0107C31.8928 12.4347 30.8079 13.9924 29.7619 15.5502C25.97 21.1977 17.2201 25.0518 10.2568 24.1417C7.19154 23.741 4.97689 22.4823 3.78004 20.7176C3.72674 20.7826 4.44756 24.3298 7.45634 25.697C10.8139 27.2228 17.2589 27.4842 23.0857 24.5408C31.1234 20.4804 31.7269 16.2648 32.0109 15.3891C32.5562 13.707 32.0661 11.0394 32.0109 11.0107Z" fill="#B27E09"/>
<path d="M20.6198 21.9542C27.051 19.2892 30.9274 13.902 29.2779 9.92153C27.6285 5.94102 21.0779 4.87453 14.6467 7.53946C8.21547 10.2044 4.33908 15.5916 5.98851 19.5721C7.63793 23.5526 14.1886 24.6191 20.6198 21.9542Z" fill="#E9B522"/>
<path d="M10.7561 24.9935C3.7929 24.0834 1.21276 18.7484 5.00466 13.1009C8.79655 7.45344 17.5465 3.59945 24.5097 4.50958C31.473 5.41971 34.0531 10.7547 30.2612 16.4021C26.4693 22.0496 17.7193 25.9037 10.7561 24.9935ZM23.3824 6.18852C17.5606 5.42759 10.245 8.64984 7.07475 13.3715C3.90449 18.0932 6.06163 22.5536 11.8834 23.3145C17.7051 24.0755 25.0207 20.8532 28.1911 16.1315C31.3613 11.4098 29.2041 6.94944 23.3824 6.18852Z" fill="#F7DE61"/>
<path d="M18.495 18.9355C17.6469 19.3035 16.7211 19.4823 15.7177 19.4718L14.831 20.7924L13.335 20.5968L14.2057 19.3001C13.5771 19.1747 13.0375 18.9922 12.5873 18.7521C12.1366 18.5121 11.797 18.2218 11.5684 17.8814L12.9646 16.8476C13.4531 17.4981 14.1726 17.9156 15.123 18.1001L16.7844 15.6258C16.2196 15.4055 15.767 15.1845 15.4264 14.9632C15.0857 14.7419 14.8717 14.4505 14.7842 14.0899C14.6968 13.7291 14.8263 13.2909 15.1723 12.7755C15.4599 12.3472 15.854 11.9739 16.3551 11.6554C16.856 11.3371 17.422 11.0919 18.0535 10.92C18.6846 10.7481 19.3298 10.6706 19.9884 10.6876L20.875 9.36719L22.371 9.56274L21.4924 10.8712C22.0221 11.0009 22.4806 11.1817 22.8675 11.4133C23.2543 11.6451 23.5335 11.9102 23.7056 12.2086L22.3094 13.2424C21.915 12.6734 21.334 12.287 20.5671 12.083L18.8339 14.6644C19.3982 14.8851 19.844 15.1005 20.1704 15.3114C20.4968 15.5222 20.7028 15.8015 20.7886 16.1492C20.8742 16.4968 20.7494 16.9204 20.4139 17.42C19.9826 18.0624 19.3428 18.5676 18.495 18.9355ZM17.0211 13.6576C17.1411 13.8589 17.3764 14.047 17.7269 14.2222L19.2684 11.9262C18.7999 11.9427 18.3766 12.0384 17.9988 12.2132C17.6205 12.3882 17.328 12.6303 17.1203 12.9395C16.9338 13.2172 16.9008 13.4564 17.0211 13.6576ZM17.66 17.9337C18.0053 17.7675 18.2823 17.5297 18.4899 17.2204C18.6548 16.9747 18.6803 16.7624 18.5666 16.5835C18.4525 16.4048 18.2248 16.237 17.8835 16.08L16.4537 18.2095C16.9123 18.1916 17.3143 18.0999 17.66 17.9337Z" fill="#CE9811"/>
<path d="M5.77472 13.2016C9.49644 7.6587 17.9942 3.8439 24.8912 4.56511C24.7654 4.54529 24.6386 4.52645 24.5097 4.50958C17.5465 3.59945 8.7965 7.45351 5.00467 13.1009C1.21277 18.7484 3.79284 24.0834 10.7561 24.9935C10.885 25.0104 11.0146 25.0251 11.1447 25.0387C4.47008 23.9861 2.05299 18.7445 5.77472 13.2016Z" fill="#FFF2BD"/>
<path d="M23.3837 6.18867C23.2708 6.1739 23.1573 6.16123 23.0433 6.14941C28.6124 7.03493 30.6269 11.4134 27.5181 16.0436C24.4093 20.6737 17.3144 23.8616 11.5508 23.2659C11.6609 23.2834 11.7718 23.3 11.8846 23.3148C17.7064 24.0757 25.022 20.8534 28.1923 16.1317C31.3626 11.41 29.2054 6.9496 23.3837 6.18867Z" fill="#CE9811"/>
<path d="M16.9253 13.3456C17.0454 13.547 17.2806 13.735 17.6311 13.9102L19.1726 11.6142C18.7041 11.6308 18.2808 11.7265 17.903 11.9012C17.5247 12.0763 17.2322 12.3183 17.0245 12.6276C16.8381 12.9053 16.8051 13.1445 16.9253 13.3456ZM17.5642 17.6217C17.9095 17.4555 18.1864 17.2177 18.3941 16.9084C18.5591 16.6627 18.5844 16.4504 18.4707 16.2715C18.3566 16.0928 18.129 15.925 17.7877 15.768L16.3579 17.8975C16.8166 17.8796 17.2186 17.7878 17.5642 17.6217ZM18.3993 18.6235C17.5512 18.9915 16.6254 19.1703 15.622 19.1598L14.7353 20.4804L13.2393 20.2848L14.11 18.988C13.4814 18.8627 12.9418 18.6802 12.4916 18.4401C12.0409 18.2001 11.7013 17.9098 11.4727 17.5694L12.8688 16.5356C13.3573 17.1861 14.0768 17.6036 15.0272 17.7881L16.6885 15.3138C16.1238 15.0935 15.6711 14.8725 15.3305 14.6512C14.9898 14.4299 14.7758 14.1385 14.6884 13.7779C14.601 13.4171 14.7304 12.9789 15.0765 12.4635C15.3641 12.0352 15.7582 11.6619 16.2592 11.3434C16.7602 11.0251 17.3261 10.7799 17.9577 10.6079C18.5888 10.4361 19.2339 10.3586 19.8926 10.3756L20.7792 9.05518L22.2752 9.25072L21.3967 10.5592C21.9263 10.689 22.3849 10.8697 22.7717 11.1013C23.1585 11.3332 23.4377 11.5982 23.6098 11.8967L22.2137 12.9305C21.8193 12.3615 21.2383 11.975 20.4714 11.7711L18.7382 14.3525C19.3024 14.5731 19.7482 14.7885 20.0746 14.9995C20.4011 15.2103 20.6071 15.4896 20.6928 15.8372C20.7785 16.1849 20.6536 16.6084 20.3181 17.1081C19.8869 17.7505 19.247 18.2557 18.3993 18.6235Z" fill="#F7DE61"/>
</svg>

<svg xmlns="http://www.w3.org/2000/svg" width="36" height="30" fill="none"><path fill="#F7DE61" d="M21.205 23.367c7.692-3.187 12.328-9.63 10.356-14.392-1.973-4.76-9.808-6.036-17.5-2.849C6.369 9.314 1.732 15.757 3.705 20.518s9.808 6.036 17.5 2.849"/><path fill="#B27E09" d="M32.01 11.01c-.117 1.425-1.202 2.982-2.248 4.54-3.792 5.648-12.542 9.502-19.505 8.592-3.065-.401-5.28-1.66-6.477-3.424-.053.065.668 3.612 3.676 4.979 3.358 1.526 9.803 1.787 15.63-1.156 8.037-4.06 8.64-8.276 8.925-9.152.545-1.682.055-4.35 0-4.378"/><path fill="#E9B522" d="M20.62 21.954c6.431-2.665 10.307-8.052 8.658-12.032s-8.2-5.047-14.631-2.383c-6.432 2.665-10.308 8.053-8.658 12.033 1.649 3.98 8.2 5.047 14.63 2.382"/><path fill="#F7DE61" d="M10.756 24.994c-6.963-.91-9.543-6.246-5.751-11.893S17.547 3.599 24.51 4.51c6.963.91 9.543 6.245 5.751 11.892-3.792 5.648-12.542 9.502-19.505 8.592M23.382 6.189c-5.821-.761-13.137 2.46-16.307 7.182s-1.013 9.183 4.808 9.943c5.822.762 13.138-2.46 16.308-7.183 3.17-4.721 1.013-9.182-4.809-9.942"/><path fill="#CE9811" d="M18.495 18.936q-1.272.55-2.777.536l-.887 1.32-1.496-.195.87-1.297q-.942-.188-1.618-.548-.675-.36-1.019-.87l1.397-1.034q.732.976 2.158 1.252l1.661-2.474q-.846-.33-1.358-.663-.51-.332-.642-.873-.13-.541.388-1.315a3.9 3.9 0 0 1 1.183-1.12 6.2 6.2 0 0 1 1.698-.735 6.7 6.7 0 0 1 1.935-.232l.887-1.32 1.496.195-.879 1.308q.795.194 1.375.542t.839.796l-1.397 1.033q-.591-.853-1.742-1.159l-1.733 2.581q.846.332 1.336.647.49.316.619.838.128.521-.375 1.271-.647.964-1.919 1.515m-1.474-5.278q.18.3.706.564l1.541-2.296a3.3 3.3 0 0 0-1.27.287 2.1 2.1 0 0 0-.878.727q-.28.415-.099.718m.639 4.276a2.05 2.05 0 0 0 .83-.714q.247-.368.077-.636-.171-.27-.683-.504l-1.43 2.13q.687-.027 1.206-.276"/><path fill="#FFF2BD" d="M5.775 13.202c3.721-5.543 12.22-9.358 19.116-8.637a15 15 0 0 0-.381-.055C17.547 3.6 8.796 7.454 5.005 13.1c-3.792 5.648-1.212 10.983 5.751 11.894q.194.024.389.045c-6.675-1.053-9.092-6.295-5.37-11.837"/><path fill="#CE9811" d="M23.384 6.189a13 13 0 0 0-.34-.04c5.568.886 7.583 5.264 4.474 9.895s-10.204 7.818-15.967 7.222q.164.026.334.049c5.821.76 13.137-2.462 16.307-7.183 3.17-4.722 1.013-9.182-4.808-9.943"/><path fill="#F7DE61" d="M16.925 13.346q.18.302.706.564l1.542-2.296a3.3 3.3 0 0 0-1.27.287 2.1 2.1 0 0 0-.878.727q-.28.416-.1.718m.64 4.276a2.05 2.05 0 0 0 .83-.714q.247-.368.076-.637-.171-.267-.683-.503l-1.43 2.13q.688-.027 1.206-.276m.834 1.002q-1.272.55-2.777.536l-.887 1.32-1.496-.195.871-1.297q-.943-.188-1.618-.548t-1.02-.87l1.397-1.034q.732.976 2.158 1.252l1.662-2.474q-.848-.33-1.358-.663-.511-.332-.643-.873-.13-.541.388-1.315a3.9 3.9 0 0 1 1.183-1.12 6.2 6.2 0 0 1 1.699-.735 6.7 6.7 0 0 1 1.935-.232l.886-1.32 1.496.195-.878 1.308q.795.195 1.375.542t.838.796l-1.396 1.034q-.593-.854-1.743-1.16l-1.733 2.581q.846.332 1.337.647.489.316.618.838.128.522-.375 1.271-.647.964-1.919 1.515"/></svg>
